storage/app/icons/phosphoricons/regular/mailbox.svg

<svg xmlns="http://www.w3.org/2000/svg" fill="currentColor" viewBox="0 0 256 256"><path d="M104 152a8 8 0 0 1-8 8H56a8 8 0 0 1 0-16h40a8 8 0 0 1 8 8m136-36v60a16 16 0 0 1-16 16h-88v32a8 8 0 0 1-16 0v-32H32a16 16 0 0 1-16-16v-60a60.07 60.07 0 0 1 60-60h76V24a8 8 0 0 1 8-8h32a8 8 0 0 1 0 16h-24v24h12a60.07 60.07 0 0 1 60 60m-120 60v-60a44 44 0 0 0-88 0v60Zm104-60a44.05 44.05 0 0 0-44-44h-12v72a8 8 0 0 1-16 0V72h-35.25A59.86 59.86 0 0 1 136 116v60h88Z"/></svg>

<svg xmlns="http://www.w3.org/2000/svg" viewBox="0 0 256 256" fill="currentColor"><path d="M104,152a8,8,0,0,1-8,8H56a8,8,0,0,1,0-16H96A8,8,0,0,1,104,152Zm136-36v60a16,16,0,0,1-16,16H136v32a8,8,0,0,1-16,0V192H32a16,16,0,0,1-16-16V116A60.07,60.07,0,0,1,76,56h76V24a8,8,0,0,1,8-8h32a8,8,0,0,1,0,16H168V56h12A60.07,60.07,0,0,1,240,116ZM120,176V116a44,44,0,0,0-88,0v60Zm104-60a44.05,44.05,0,0,0-44-44H168v72a8,8,0,0,1-16,0V72H116.75A59.86,59.86,0,0,1,136,116v60h88Z"/></svg>
